// @title Week 1 - Track 3
// @license CC BY-NC-SA 4.0 https://creativecommons.org/licenses/by-nc-sa/4.0/
// @by Sean Verba
// @date Jan 16, 2026

// 03
stack(
note("[<b c>!3 e]!3 a").sound("wt_digital_echoes").cutoff(1200).gain(1.2),
note("b <e b> g b").sound("gm_lead_1_square").every(9, x => null)
)