// @title Week 5 - Track 1
// @license CC BY-NC-SA 4.0 https://creativecommons.org/licenses/by-nc-sa/4.0/
// @by Sean Verba
// @date Feb 11, 2026


setcps(130/60/4)

$: n("12 <[1 3] [~ ~]> 8")
.s("gm_overdriven_guitar")
.lpf(700).lpenv(6)
.scope()

$: note("<g1 bb1 d2 f1>, <g1*3 bb1*3 d2*3 f1*3>")
.s("sawtooth, square").vib(1)
.scope()