// @title Week 2 - Track 4
// @license CC BY-NC-SA 4.0 https://creativecommons.org/licenses/by-nc-sa/4.0/
// @by Sean Verba
// @date Jan 24, 2026

setcps(130/60/3)
stack(
  note("b*2 <a c3!3>/2").sound("gm_whistle"),
  note("a3 ~ ~ ~ ~ ").sound("wt_digital_crickets").gain(0.2),
  note("c!2 ~ c").sound("bossdr110_bd"),
  note("d3 ~ d3*2 ~").sound("gm_marimba").gain(0.5)
)